assets/icons/developer.svg

<svg width="256" height="249" xmlns="http://www.w3.org/2000/svg" xml:space="preserve" enable-background="new 0 0 256 249" version="1.1"><rect id="backgroundrect" width="100%" height="100%" x="0" y="0" fill="none" stroke="none"/>

 <g style="" class="currentLayer">
  <title>Layer 1</title>
  <path fill="#6d6d6d" id="svg_1" d="m47.522,170.287l11.172,76.681l138.612,0l11.172,-76.681l-160.956,0zm80.478,44.962c-5.748,0 -10.407,-3.063 -10.407,-6.84s4.659,-6.84 10.407,-6.84c5.748,0 10.407,3.062 10.407,6.84s-4.659,6.84 -10.407,6.84zm105.315,17.805l-26.028,0l10.292,-70.639l-179.158,0l10.292,70.639l-26.028,0c-14.848,0 -24.85,-15.195 -18.978,-28.834l36.809,-85.489c7.149,-16.605 23.493,-27.362 41.571,-27.362l14.486,0l22.885,34.061l4.665,-22.254l-7.809,-11.807l23.491,0l-7.81,11.807l4.655,22.098l22.78,-33.905l14.486,0c18.078,0 34.422,10.757 41.571,27.362l36.808,85.489c5.87,13.638 -4.131,28.834 -18.98,28.834zm-105.315,-231.021c22.496,0 40.733,18.237 40.733,40.733s-18.237,40.732 -40.733,40.732s-40.733,-18.237 -40.733,-40.733s18.237,-40.732 40.733,-40.732z" class="selected" fill-opacity="1" stroke="#e84141" stroke-opacity="1"/>
 </g>
</svg>

<?xml version="1.0" encoding="utf-8"?>
<!-- Uploaded to SVGRepo https://www.svgrepo.com -->
<svg version="1.1" id="Layer_1" xmlns="http://www.w3.org/2000/svg" xmlns:xlink="http://www.w3.org/1999/xlink" x="0px" y="0px"
	 width="256px" height="249px" viewBox="0 0 256 249" enable-background="new 0 0 256 249" xml:space="preserve">
<path d="M47.522,170.287l11.172,76.681h138.612l11.172-76.681H47.522z M128,215.249c-5.748,0-10.407-3.063-10.407-6.84
	s4.659-6.84,10.407-6.84c5.748,0,10.407,3.062,10.407,6.84S133.748,215.249,128,215.249z M233.315,233.054h-26.028l10.292-70.639
	H38.421l10.292,70.639H22.685c-14.848,0-24.85-15.195-18.978-28.834l36.809-85.489c7.149-16.605,23.493-27.362,41.571-27.362h14.486
	l22.885,34.061l4.665-22.254l-7.809-11.807h23.491l-7.81,11.807l4.655,22.098l22.78-33.905h14.486
	c18.078,0,34.422,10.757,41.571,27.362l36.808,85.489C258.165,217.858,248.164,233.054,233.315,233.054z M128,2.033
	c22.496,0,40.733,18.237,40.733,40.733S150.496,83.498,128,83.498S87.267,65.261,87.267,42.765S105.504,2.033,128,2.033z"/>
</svg>
